X:1
T:Title
%%score { 1 | 2 }
L:1/8
M:4/4
K:G
V:1 treble nm="Grand Piano"
V:2 bass 
V:1
 z4[Q:1/4=106] [Bd]3 [Ac] | [GB]2 [Gd]2 [FA]2 [FB]2 | G2 [GB]2 [DA]2 [DG]2 | %3
 [CE]2 [EG]2 [EG]3 [CE] | [B,D]4 G3 A | B2 d2 [FA]2 [FB]2 | G2 [GB]2 A2 G2 | F2 A2 d2 ^c2 | %8
[M:2/4] [Fd]4 | D3 D |[M:4/4] G2 B4 G>G | [FA]2 [Ac]4 [FA]>[FA] | [GB]2 [Gd]4 [GB]>[GB] | %13
 [Gc]2 [Ge]4 [Ge]>[Ge] | [Bd]>[Ac] [GB]>[FA] G2 [FA]>[FA] | [GB]6 [Ge]>[Ge] | %16
 [Bd]>[Ac] [B,GB]>[CFA] [B,G]2 [CFA]>[CDA] |[M:3/4] [B,DG]6 |] %18
V:2
 z4 G,3 G, | G,2 [G,B,]2 [D,C]2 [D,D]2 | [E,B,]2 [E,G,]2 [B,,G,]2 [B,,G,]2 | %3
 [C,G,]2 [C,C]2 [C,C]3 [C,G,] | [G,,G,]4 [G,B,]3 [G,D] | [G,D]2 [G,B,D]2 [D,C]2 [D,D]2 | %6
 [E,B,]2 [E,G,]2[K:treble] [F,A,F]2 [G,B,E]2 | [A,D]2 [A,F]2 [A,F]2[K:bass] [A,E]2 | %8
[M:2/4] [D,A,]4 | [D,C]3 [D,C] |[M:4/4] [G,B,D]2[K:treble] [G,DG]4 [G,B,]>[K:bass][G,B,] | %11
 [D,D]2 [D,D]4 [D,D]>[D,D] | [G,D]2 [G,B,]4 [=F,D]>[F,D] | [C,C]2 [C,C]4 [C,C]>[C,C] | %14
 [D,G,]>[D,A,] [D,B,]>[D,C] [D,B,]2 [D,D]>[D,D] | [G,D]6 [C,C]>[C,C] | %16
 [D,G,]>[D,A,] D,>D, D,2 D,>D, |[M:3/4] G,,6 |] %18

